pix_core/f/json.svg

<svg fill="none" preserveAspectRatio="xMinYMid meet" viewBox="0 0 24 24" xmlns="http://www.w3.org/2000/svg"><g fill="#fff"><path d="m10.5 11.5c-.55229 0-1 .4477-1 1v.3418c0 .5529-.22424 1.0529-.58635 1.4147.36211.3617.58635.8617.58635 1.4146v.3418c0 .5523.44771 1 1 1 .2761 0 .5.2239.5.5 0 .2762-.2239.5-.5.5-1.10457 0-2-.8954-2-2v-.3418c0-.4346-.27755-.8057-.66662-.9432-.07749-.0274-.14401-.0719-.19679-.1279-.04071-.043-.07431-.0939-.0982-.1514-.01961-.047-.03209-.0972-.03661-.1486-.00312-.0354-.00239-.0707.00194-.1053.00564-.045.01738-.0889.03467-.1304.02389-.0575.05749-.1084.0982-.1514.05278-.0559.1193-.1005.19679-.1279.38907-.1375.66662-.5086.66662-.9432v-.3418c0-1.1046.89543-2 2-2 .2761 0 .5.2239.5.5s-.2239.5-.5.5z"/><path d="m13.5132 11.5c.5523 0 1 .4477 1 1v.3418c0 .5529.2242 1.0529.5863 1.4147-.3621.3617-.5863.8617-.5863 1.4146v.3418c0 .5523-.4477 1-1 1-.2762 0-.5.2239-.5.5 0 .2762.2238.5.5.5 1.1046 0 2-.8954 2-2v-.3418c0-.4346.2775-.8057.6666-.9432.0775-.0274.144-.0719.1968-.1279.0407-.043.0743-.0939.0982-.1514.0227-.0545.0359-.1132.0382-.1732.0007-.0206.0002-.0412-.0015-.0615-.0045-.0518-.017-.1022-.0367-.1496-.0239-.0575-.0575-.1084-.0982-.1514-.0528-.0559-.1193-.1005-.1968-.1279-.3891-.1375-.6666-.5086-.6666-.9432v-.3418c0-1.1046-.8954-2-2-2-.2762 0-.5.2239-.5.5s.2238.5.5.5z"/><path clip-rule="evenodd" d="m19.5 19c0 1.3807-1.1193 2.5-2.5 2.5h-10c-1.38071 0-2.5-1.1193-2.5-2.5v-14c0-1.38071 1.11929-2.5 2.5-2.5h6.1716c.663 0 1.2989.26339 1.7677.73223l3.8285 3.82843c.4688.46884.7322 1.10473.7322 1.76777zm-14 0v-14c0-.82843.67157-1.5 1.5-1.5h6c.2761 0 .5.22386.5.5v3c0 .82843.6716 1.5 1.5 1.5h3c.2761 0 .5.22386.5.5v10c0 .8284-.6716 1.5-1.5 1.5h-10c-.82843 0-1.5-.6716-1.5-1.5zm12.2929-11.5h-2.7929c-.2761 0-.5-.22386-.5-.5v-2.79289z" fill-rule="evenodd"/></g></svg>

<svg viewBox="0 0 24 24" fill="none" xmlns="http://www.w3.org/2000/svg" preserveAspectRatio="xMinYMid meet">
<path  d="M10.5 11.5C9.94771 11.5 9.5 11.9477 9.5 12.5V12.8418C9.5 13.3947 9.27576 13.8947 8.91365 14.2565C9.27576 14.6182 9.5 15.1182 9.5 15.6711V16.0129C9.5 16.5652 9.94771 17.0129 10.5 17.0129C10.7761 17.0129 11 17.2368 11 17.5129C11 17.7891 10.7761 18.0129 10.5 18.0129C9.39543 18.0129 8.5 17.1175 8.5 16.0129V15.6711C8.5 15.2365 8.22245 14.8654 7.83338 14.7279C7.75589 14.7005 7.68937 14.656 7.63659 14.6C7.59588 14.557 7.56228 14.5061 7.53839 14.4486C7.51878 14.4016 7.5063 14.3514 7.50178 14.3C7.49866 14.2646 7.49939 14.2293 7.50372 14.1947C7.50936 14.1497 7.5211 14.1058 7.53839 14.0643C7.56228 14.0068 7.59588 13.9559 7.63659 13.9129C7.68937 13.857 7.75589 13.8124 7.83338 13.785C8.22245 13.6475 8.5 13.2764 8.5 12.8418V12.5C8.5 11.3954 9.39543 10.5 10.5 10.5C10.7761 10.5 11 10.7239 11 11C11 11.2761 10.7761 11.5 10.5 11.5Z" fill="#fff"/>
<path  d="M13.5132 11.5C14.0655 11.5 14.5132 11.9477 14.5132 12.5V12.8418C14.5132 13.3947 14.7374 13.8947 15.0995 14.2565C14.7374 14.6182 14.5132 15.1182 14.5132 15.6711V16.0129C14.5132 16.0129 14.5132 16.0129 14.5132 16.0129C14.5132 16.5652 14.0655 17.0129 13.5132 17.0129C13.237 17.0129 13.0132 17.2368 13.0132 17.5129C13.0132 17.7891 13.237 18.0129 13.5132 18.0129C14.6178 18.0129 15.5132 17.1175 15.5132 16.0129C15.5132 16.0129 15.5132 16.0129 15.5132 16.0129V15.6711C15.5132 15.2365 15.7907 14.8654 16.1798 14.7279C16.2573 14.7005 16.3238 14.656 16.3766 14.6C16.4173 14.557 16.4509 14.5061 16.4748 14.4486C16.4975 14.3941 16.5107 14.3354 16.513 14.2754C16.5137 14.2548 16.5132 14.2342 16.5115 14.2139C16.507 14.1621 16.4945 14.1117 16.4748 14.0643C16.4509 14.0068 16.4173 13.9559 16.3766 13.9129C16.3238 13.857 16.2573 13.8124 16.1798 13.785C15.7907 13.6475 15.5132 13.2764 15.5132 12.8418V12.5C15.5132 11.3954 14.6178 10.5 13.5132 10.5C13.237 10.5 13.0132 10.7239 13.0132 11C13.0132 11.2761 13.237 11.5 13.5132 11.5Z" fill="#fff"/>
<path fill-rule="evenodd" clip-rule="evenodd" d="M19.5 19C19.5 20.3807 18.3807 21.5 17 21.5H7C5.61929 21.5 4.5 20.3807 4.5 19V5C4.5 3.61929 5.61929 2.5 7 2.5H13.1716C13.8346 2.5 14.4705 2.76339 14.9393 3.23223L18.7678 7.06066C19.2366 7.5295 19.5 8.16539 19.5 8.82843V19ZM5.5 19V5C5.5 4.17157 6.17157 3.5 7 3.5H13C13.2761 3.5 13.5 3.72386 13.5 4V7C13.5 7.82843 14.1716 8.5 15 8.5H18C18.2761 8.5 18.5 8.72386 18.5 9V19C18.5 19.8284 17.8284 20.5 17 20.5H7C6.17157 20.5 5.5 19.8284 5.5 19ZM17.7929 7.5H15C14.7239 7.5 14.5 7.27614 14.5 7V4.20711L17.7929 7.5Z" fill="#fff"/>
</svg>
